icons/provider_fst.svg

<svg width="48" height="48" viewBox="0 0 48 48" fill="none" xmlns="http://www.w3.org/2000/svg">
<path fill-rule="evenodd" clip-rule="evenodd" d="M8 8V15H15V8H8ZM7 6C6.44772 6 6 6.44771 6 7V16C6 16.5523 6.44771 17 7 17H16C16.5523 17 17 16.5523 17 16V7C17 6.44772 16.5523 6 16 6H7ZM33 33V40H40V33H33ZM32 31C31.4477 31 31 31.4477 31 32V41C31 41.5523 31.4477 42 32 42H41C41.5523 42 42 41.5523 42 41V32C42 31.4477 41.5523 31 41 31H32ZM30.3913 28.9771L27.2071 25.7929L25.7929 27.2071L28.9771 30.3913L30.3913 28.9771ZM21.6774 20.2632L25.6545 24.2403L24.2403 25.6545L20.2632 21.6774V25.8947H18.2632V19.2632V18.2632H19.2632H25.8947V20.2632H21.6774Z" fill="black"/>
</svg>

<svg
  xmlns="http://www.w3.org/2000/svg"
  width="24"
  height="24"
  viewBox="0 0 24 24"
  fill="none"
  stroke="currentColor"
  stroke-width="2"
  stroke-linecap="round"
  stroke-linejoin="round"
>
  <path
    fill-rule="evenodd"
    d="M8 8v7h7V8zM7 6a1 1 0 0 0-1 1v9a1 1 0 0 0 1 1h9a1 1 0 0 0 1-1V7a1 1 0 0 0-1-1zm26 27v7h7v-7zm-1-2a1 1 0 0 0-1 1v9a1 1 0 0 0 1 1h9a1 1 0 0 0 1-1v-9a1 1 0 0 0-1-1zm-1.609-2.023-3.184-3.184-1.414 1.414 3.184 3.184zm-8.714-8.714 3.977 3.977-1.414 1.415-3.977-3.978v4.218h-2v-7.632h7.632v2z"
    clip-rule="evenodd"
  />
</svg>
